X: 32825
T: Poppy Leaf, The
R: hornpipe
M: 4/4
K: Gmajor
|:(3CB,A,|G,B, DG B,D GB|DG Bd GB dg|ed cB cB AG|Fd AF DC B,A,|
G,B, DG B,D GB|DG Bd GB dg|ed cB cD EF|G2 B2 G2:|
|:Bc|dB GB dB gd|ba gf ed cB|cA FA cA fd|ag fe dc BA|
(3BcB GB (3cdc Ac|(3ded Bd e2 dc|Bg dB dc AF|G2 B2 G2:|

